symbols/web/border_vertical/materialsymbolsoutlined/border_vertical_wght300_40px.svg

<svg xmlns="http://www.w3.org/2000/svg" height="40" width="40"><path d="M5.333 34.667v-2.292h2.292v2.292Zm0-6.75v-2.292h2.292v2.292Zm0-6.792v-2.25h2.292v2.25Zm0-6.75v-2.292h2.292v2.292Zm0-6.75V5.333h2.292v2.292Zm6.75 27.042v-2.292h2.292v2.292Zm0-13.542v-2.25h2.292v2.25Zm0-13.5V5.333h2.292v2.292Zm6.792 27.042V5.333h2.25v29.334Zm6.75 0v-2.292h2.292v2.292Zm0-13.542v-2.25h2.292v2.25Zm0-13.5V5.333h2.292v2.292Zm6.75 27.042v-2.292h2.292v2.292Zm0-6.75v-2.292h2.292v2.292Zm0-6.792v-2.25h2.292v2.25Zm0-6.75v-2.292h2.292v2.292Zm0-6.75V5.333h2.292v2.292Z"/></svg>

<svg xmlns="http://www.w3.org/2000/svg" height="40" width="40"><path d="M5.333 34.667V32.375H7.625V34.667ZM5.333 27.917V25.625H7.625V27.917ZM5.333 21.125V18.875H7.625V21.125ZM5.333 14.375V12.083H7.625V14.375ZM5.333 7.625V5.333H7.625V7.625ZM12.083 34.667V32.375H14.375V34.667ZM12.083 21.125V18.875H14.375V21.125ZM12.083 7.625V5.333H14.375V7.625ZM18.875 34.667V5.333H21.125V34.667ZM25.625 34.667V32.375H27.917V34.667ZM25.625 21.125V18.875H27.917V21.125ZM25.625 7.625V5.333H27.917V7.625ZM32.375 34.667V32.375H34.667V34.667ZM32.375 27.917V25.625H34.667V27.917ZM32.375 21.125V18.875H34.667V21.125ZM32.375 14.375V12.083H34.667V14.375ZM32.375 7.625V5.333H34.667V7.625Z"/></svg>
